X:1
T:El Zafarrancho.
T:El Zafarrancho.
T:Le Branlebas.
T:MIGUEL PICAZO.
T: Danse espagnole. 
T: Hommage affectueux à Mlle Malvina Rossignol. 
T:C. 42009 D.
T:C. 42009 D.
T:C. 42009 D.
T:C. 42009 D.
C:MIGUEL PICAZO.
Z:C. 42009 D.
%%score { 1 | 2 }
L:1/8
Q:1/4=110
M:3/4
K:D
V:1 treble nm="Piano" snm="Pno."
V:2 bass 
V:1
"^Introduction."!ff! !>![fad']2 !>![fad']!>![fad']!>![fad']!>![fad'] | !>![fad']2 (c'bab) | %2
!ff! !>![egc']2 !>![egc']!>![egc']!>![egc']!>![egc'] | !>![egc']2 (baga) | %4
!ff! !>![dgb]2 !>![dgb]!>![dgb]!>![dgb]!>![dgb] | !>![dgb]2 (agfg) | %6
!ff! !>![dfa]2 !>![dfa]!>![dfa]!>![dfa]!>![dfa] | !>![dfa]2 (gfef) | %8
!ff! !>![Acg]2 !>![Acg]!>![Acg]!>![Acg]!>![Acg] | !>![Acg]2 (fgfe) | %10
!ff! !>![FAd]2 !>![FAd]!>![FAd]!>![FAd]!>![FAd] | .[FAd]2 z2 z2 || %12
[K:G][M:3/8]!f![Q:1/4=90]"^Allegro temps de Valse jota."{DEF} [Gg][Gg][Gg] | [Ff][Gg]>[Ee] | %14
 (3G/A/G/F/E/F- | F3 |!<(! ([Ff][Gg][Aa]) | (3g/a/g/fe!<)! |!>(! [Gg][Ff]/[Ee]/[Dd]- | [Dd]3!>)! | %20
!f! [Bb][Aa][Gg] | [Ff][Aa]>[Gg] |!<(! (3g/a/g/f[cc']-!<)! |!>(! [cc'][Ee][Gg]!>)! | %24
!<(! (3g/a/g/f[cc']-!<)! |!>(! [cc'][Ee][Gg]!>)! |!<(! (3e/f/e/d[Bb]- | [Bb]3!<)! | %28
!f! [Gg][Gg][Gg] | [Ff][Gg]>[Ee] | (3g/a/g/f/e/f- | f3 |!<(! ([Ff][Gg][Aa]) | (3g/a/g/fe!<)! | %34
!>(! [Gg][Ff]/[Ee]/[Dd]- | [Dd]3!>)! | B(3A/B/A/G | [Ff][Gg][Aa] | [Gg][Ff]/[Gg]/[Bb]- | %39
 [Bb](c/d/e/f/) | [Aa][Gg][Dd] | B{/d}c>B |!ff! !>![B,DG].[B,DG]/.[B,DG]/.[B,DG]/.[B,DG]/ | %43
"^Castagnettes." .[B,DG]!ff!(B/d/)(B/d/) | !>!c(c/B/A) |!<(! (A/G/F)D!<)! |!<(! G(G/A/B) | %47
 (B/c/d)g | (3f/g/f/ed | [ce][df][eg]!<)! |!>(! (3e/f/e/ d2-!>)! | d!ff!(B/d/)(B/d/) | %52
 !>!c(c/B/A) |!<(! (A/G/F)D!<)! | G(G/A/B) | (B/c/d)g | (3f/g/f/ed | (3c/d/c/BA |:!f! G.g/.g/.g | %59
 .e/.e/.e.d | !>!d.e/.e/.e | .f.e.d | !>!d.d/.d/.d | .e/e/ef | !>!f.g/.g/.g | .f.f/.e/.d :: %66
!ff!!<(! .[Bdg]/.[Bdg]/.[Bdg]/.[Bdg]/.[Bdg]/.[Bdg]/ | %67
 .[Bdg]/.[Bdg]/.[Bdg]/.[Bdg]/.[Bdg]/.[Bdg]/!<)! | %68
!>(! .[c_e_a]/.[cea]/.[cea]/.[cea]/.[cea]/.[cea]/ | %69
 .[c_e_a]/.[cea]/.[cea]/.[cea]/.[cea]/.[cea]/!>)! :| !>![Bdg]!>![Bdg]/!>![Bdg]/!>![Bdg]/!>![Bdg]/ | %71
 .[Bdg] z z/!p! (3(G,/4A,/4B,/4 |:[K:Eb] .C).C.C | CDE | (3D/E/D/ C2- | C2 C | FCD | (3E/F/E/DC | %78
 E D2- | D3 | DEF | DE>C | E D2- | D3 | (DEF ||1 D)E>C | =B, G,2- | G,2 z/!p! (3G,/4=A,/4=B,/4 :|2 %88
 DE>D || C!ff!!>!c/!>!c/!>!c | !>!c/(G/A/B/c/d/ | e)(3f/e/d/e | (3f/e/d/e(3f/e/d/ | e3- | %94
 e/(G/A/B/c/d/ | e)(3f/e/d/e | (3f/e/d/e(3f/e/d/ | d3- | d/(F/G/A/B/c/ | d)(3e/d/c/d | %100
 (3e/d/c/d(3e/d/c/ | d3- | d/(F/G/A/B/c/ | d)(3e/d/c/d | (3e/d/c/d(3e/d/c/ | B3- | B/(G/A/B/c/d/ | %107
 e)(3f/e/d/e | (3f/e/d/e(3f/e/d/ | e3- | e/(G/A/B/c/d/ | e)(3f/e/d/e | (3f/e/d/e(3f/e/d/ | c3- | %114
 c/(c/=B/c/d/c/ |!ff! !>![^Fe]3-) | [Fe]/(c/=B/c/d/c/ |!ff! !>![Ge]3-) | [Ge]/(c/=B/c/d/c/ | %119
 !>!e/)(c/=B/c/d/c/ | e/d/f/e/d/c/) | !>![=Bdg]!>![Bdg]/!>![Bdg]/!>![Bdg] | %122
!ff! !>![=Bdg]!>![Bdg]!>![Bdg] | .[=Bdg]/.[Bdg]/.[Bdg]/.[Bdg]/.[Bdg]/.[Bdg]/ | %124
 .[=Bdg]/.[Bdg]/.[Bdg]/.[Bdg]/.[Bdg]/.[Bdg]/ | f!ff!d=e | f!fermata!g>d ||[K:C]"^à tempo"!f! ec z | %128
 z [Ee]>[Gg] |:!f! [cc']3- | [cc'][Gg]>[cc'] |!f! [Bb]3- | [Bb][Dd][Ff] |!f! [Bb]3- | %134
 [Bb][Aa]>[Gg] |!f! [cc']3- | [cc'](3a/b/a/g | [ee'] !>![cc']2- | [cc'](3a/b/a/g | %139
 [ff'] !>![dd']2- | [dd'](3a/b/a/g |1 [ff'] !>![dd']2- | [dd'](3a/b/a/g | [ee'] [cc']2- | %144
 [cc']!f![Ee]>[Gg] :|2 !>![ff'](3a/b/a/g || !>![ff'](3a/b/a/g | e z !>![dfb] | %148
 !>![cegc']"^plus vite"(e/g/)(e/g/) |!f! !>!f(f/e/d) | (d/c/B)G |!f! !>!c(c/d/e) | %152
!<(! (e/f/g)c'!<)! |!>(! (3b/c'/b/ag!>)! | [fa][gb][ac'] | (3a/b/a/g- x |!f! g(e/g/)(e/g/) | %157
 !>!f(f/e/d) | (d/c/B)G |!<(! !>!c(c/d/e) | (e/f/g)!<)!c' | (3b/c'/b/a(g | (3f/g/f/ed | %163
 c) z!fff! !>![fgb] |!fff! .[egc'] z z |] %165
V:2
 !>![D,,D,]2 !>![F,,F,]2 !>![A,,A,]2 | !>![D,,D,]2 [F,A,D]2 [F,A,D]2 | %2
 !>![A,,,A,,]2 !>![C,,C,]2 !>![E,,E,]2 | !>![A,,,A,,]2 [G,A,C]2 [G,A,C]2 | %4
 !>![G,,,G,,]2 !>![B,,,B,,]2 !>![D,,D,]2 | !>![G,,,G,,]2 [D,G,B,]2 [D,G,B,]2 | %6
 !>![D,,D,]2 !>![F,,F,]2 !>![A,,A,]2 | !>![D,,D,]2 z2 z2 | !>![A,,A,]2 !>![E,,E,]2 !>![C,,C,]2 | %9
 !>![A,,,A,,]2 z2 z2 | !>![D,,D,]2 !>!A,,2 !>!F,,2 | .D,,2 z2 z2 ||[K:G][M:3/8] G,[B,D]D, | %13
 G,[B,D]D, | A,[CD]D, | A,[CD]D, | A,[CD]D, | F,[CD]D, | G,[B,D]D, | G,[B,D]D, | G,[B,D]D, | %21
 G,[B,D]D, | A,[CD]D, | A,[CD]D, | A,[CD]D, | F,[CD]D, | G,[B,D]D, | G,[B,D]D, | %28
"_Copyright 11 by Casa Dotésio\nSicuedad Anónima Casa Dotésio, Editores,\nMadrid, Bilbao, Barcelona, Valencia y Santander.\nL. E. DOTESIO et Cie, 47, Rue Vivienne, PARIS.\n" G,[B,D]D, | %29
 G,[B,D]D, | A,[CD]D, | A,[CD]D, | A,[CD]D, | F,[CD]D, | G,[B,D]D, | %35
"_Tous droits d'execution, de reproduction,\net d'arrangements réservés pour tous pays\ny compris la Suèda, la Norvège et le Danemark.\n" G,[B,D]D, | %36
 E,"^cres    -       -       -          -     -      -      cen          -       -       -          do"[G,B,][G,B,] | %37
 B,,[^D,A,B,][D,A,B,] | E,[G,B,][G,B,] | C,[E,A,][E,A,] | G,[B,D][B,D] | D,[F,C][F,C] | %42
 !>![G,,G,]!>!D,!>!B,, | !>![G,,G,][B,D][B,D] | [D,,D,][F,A,C][F,A,C] | [D,,D,][F,A,C][F,A,C] | %46
 [G,,G,][D,G,B,][D,G,B,] | [D,,D,][D,G,B,][D,G,B,] | [D,,D,][F,A,C][F,A,C] | [C,,C,][F,A,C][G,CE] | %50
 [D,,D,][D,G,B,][D,G,B,] | [G,,G,][D,G,B,][D,G,B,] | [D,,D,][F,A,C][F,A,C] | %53
 [D,,D,][F,A,C][F,A,C] | [G,,G,][D,G,B,][D,G,B,] | [D,,D,][D,G,B,][D,G,B,] | %56
 [D,,D,][F,A,C][F,A,C] | [D,,D,][F,A,C][F,A,C] |: G,[B,D][B,D] | D,[B,D][B,D] | G,[B,D][B,D] | %61
 D,[B,D][B,D] | A,[CD]D, | A,[CD]D, | A,[CD]D, | A,[CD]D, :: !>![G,,G,]!>![=B,,=B,]!>![D,D] | %67
 !>![G,,G,]!>![=B,,=B,]!>![D,D] | !>![C,C]!>![_E,_E]!>![D,D] | !>![C,C]!>![_B,,_B,]!>![_A,,_A,] :| %70
 !>![G,,G,]!>![G,,G,]/!>![G,,G,]/!>![G,,G,]/!>![G,,G,]/ | .[G,,G,] z z |: %72
[K:Eb] C,[E,G,]"^doux"G,, | C,[E,G,]G,, | C,[E,G,]G,, | C,[E,G,]G,, | C,[E,G,]G,, | C,[E,G,]G,, | %78
 =B,,[F,G,]G,, | =B,,[F,G,]G,, | =B,,[F,G,]G,, | C,[E,G,]G,, | =B,,[F,G,]G,, | =B,,[F,G,]G,, | %84
 =B,,[F,G,]G,, ||1 =B,,[F,G,]G,, | =B,,[F,G,]G,, | =B,,[F,G,]G,, :|2 =B,,[F,G,]G,, || %89
 C,[E,G,][E,G,] | [C,,C,] z z | E,[G,B,E]B,, | E,[G,B,E]B,, | E,[G,B,E]B,, | [C,,C,] z z | %95
 E,[G,B,E]B,, | E,[G,B,E]B,, | F,[A,B,D]D, | F,[A,B,D]D, | F,[A,B,D]D, | F,[A,B,D]D, | %101
 F,[A,B,D]D, | F,[A,B,D]D, | F,[A,B,D]D, | F,[A,B,D]D, | E,[G,B,]B,, | E,[G,B,]B,, | E,[G,B,]B,, | %108
 E,[G,B,]B,, | E,[G,B,]B,, | E,[G,B,]B,, | E,[G,B,]B,, | E,[G,B,]B,, | [F,A,C][F,A,C][F,A,C] | %114
 [F,A,C] z z | [^F,=A,C][F,A,C][F,A,C] | [^F,=A,C] z z | [G,CE][G,CE][G,CE] | [G,CE] z z | %119
 !>![A,CE] z"^cres    -" z | !>![A,CE]"^-           cen        -         -     do" z z | %121
 !>![G,,G,]!>![G,,G,]/!>![G,,G,]/!>![G,,G,] | !>![G,,G,]!>![G,,G,]!>![G,,G,] | %123
"^rall.    -       -          -         -       -      rall." !//-!G,,3/2 G,3/2 | %124
 !//-!G,,3/2 G,3/2 | z3 | z3 ||[K:C] C,[E,G,]G,, | C,"^courageux" z z |: C,[E,G,]G,, | %130
 C,[E,G,]G,, | D,[F,G,]G,, | D,[F,G,]G,, | D,[F,G,]G,, | D,[F,G,]G,, | C,[E,G,]G,, | C,[E,G,]G,, | %137
 C,[E,G,]G,, | C,[E,G,]G,, | D,[F,G,]G,, | D,[F,G,]G,, |1 D,[F,G,]G,, | D,[F,G,]G,, | C,[E,G,]G,, | %144
 C,[E,G,]G,, :|2 D,[F,G,]G,, || D,[F,G,]G,, | [C,E,G,] z !>![G,,G,] | !>![C,,C,] z z | %149
 D,[F,G,][F,G,] | D,[F,G,][F,G,] | C,[E,G,][E,G,] | G,,[E,G,][E,G,] | G,,[F,G,][F,G,] | %154
 F,,[B,,D,F,][C,F,A,] | G,,[E,G,][E,G,] | C, z z | D,[F,G,][F,G,] | D,[F,G,][F,G,] | %159
 C,[E,G,][E,G,] | %160
 G,,[E,G,]"^cres     -           -         -      cen    -       -       do      -       -"[E,G,] | %161
 G,,[F,G,][F,G,] | D,[F,G,B,]G,, | [C,E,G,] z !>![G,,G,] | .[C,,C,] z"^Fin." z |] %165

